public/svg/tailwindcss.svg

<svg width="307" height="192" viewBox="0 0 307 192" fill="none" xmlns="http://www.w3.org/2000/svg">
  <path fill-rule="evenodd" clip-rule="evenodd"
    d="M153.5 10C115.233 10 91.3167 29.1111 81.75 67.3333C96.1 48.2222 112.842 41.0556 131.975 45.8333C142.892 48.5567 150.694 56.4718 159.33 65.2258C173.399 79.4901 189.683 96 225.25 96C263.517 96 287.433 76.8889 297 38.6667C282.65 57.7778 265.908 64.9444 246.775 60.1667C235.858 57.4433 228.056 49.5281 219.42 40.7742C205.351 26.5099 189.067 10 153.5 10ZM81.75 96C43.4833 96 19.5667 115.111 10 153.333C24.35 134.222 41.0917 127.056 60.225 131.833C71.1416 134.562 78.9438 142.472 87.5804 151.226C101.649 165.49 117.933 182 153.5 182C191.767 182 215.683 162.889 225.25 124.667C210.9 143.778 194.158 150.944 175.025 146.167C164.108 143.443 156.306 135.528 147.67 126.774C133.601 112.51 117.317 96 81.75 96Z"
    fill="#00D0FF" />
</svg>

<svg xmlns="http://www.w3.org/2000/svg" width="307" height="192" fill="none" viewBox="0 0 307 192"><path fill="#00d0ff" fill-rule="evenodd" d="M153.5 10q-57.4 0-71.75 57.333 21.525-28.665 50.225-21.5c10.917 2.724 18.719 10.639 27.355 19.393C173.399 79.49 189.683 96 225.25 96q57.4 0 71.75-57.333-21.525 28.665-50.225 21.5c-10.917-2.724-18.719-10.639-27.355-19.393C205.351 26.51 189.067 10 153.5 10M81.75 96Q24.35 96 10 153.333q21.525-28.666 50.225-21.5c10.917 2.729 18.719 10.639 27.355 19.393C101.65 165.49 117.933 182 153.5 182q57.4 0 71.75-57.333-21.525 28.666-50.225 21.5c-10.917-2.724-18.719-10.639-27.355-19.393C133.601 112.51 117.317 96 81.75 96" clip-rule="evenodd"/></svg>
